X:7753
T:Jackie Coleman's
R:reel
S:Session in Galway 1992
D:Music at Matt Molloy's
Z:id:hn-reel-409
M:C|
K:D
AF~F2 EDB,D|F2AF BFAF|E2BE dEBE|ABde fedB|
AF~F2 EDB,D|F2AF BFAF|E2BE dEBE|1 ABde fddB:|2 ABde fdde||
|:fddc d2de|fddc dfaf|eA~A2 gAfA|eA~A2 cdeg|
fddc d2de|fddc dfaf|g2gf gbag|1 fgeg fdde:|2 fgeg fedB||
"variations"
|:AF~F2 EFDE|F2AF BFAF|E2BE dEBE|ABde fedB|
AF~F2 EFDE|F2AF BFAF|E2BE dEBE|1 ABde fddB:|2 ABde fdde||
|:fddc dfag|fdde fgaf|eA~A2 eAfA|eA~A2 efge|
fddc dfag|fddc dfaf|g2gf gbag|1 fgef d2de:|2 fgef d2dB||


